X:1998
T:Lampaan polska
C:anon
O:Finland
R:Polska, folia
Z:Transcribed by Frank Nordberg - http://www.musicaviva.com
F:http://abc.musicaviva.com/tunes/finland/lampaan-polska.abc
M:3/4
L:1/8
K:Gm
"Gm"GG GG GG|"D7"^F2F4|"Gm"GG GG2G|"D7"A2A4|
w:Yx-i kax-i kol-me nelj-\"a, an-na i-loi-nen ol-la,
"Gm"BBB2B2|"D7"A2A4|"Gm"GGG2"D7"^F2|"Gm"G2G4:|
w:kos-ka su-ru tu-le, an-na h\"a-nen men-n\"a.
|:"Gm"d2d2d2|"D7"c2c4|"Gm"BBB2B2|"D7"A>Ad4|
w:Bar-mat ne lau-laa, nel-j\"a hijr-t\"a hyp-pe-le,
"Gm"GGd2G2|"D7"AAd2A2|"Gm"BB"D7"A2^F2|"Gm"G2G4:|
w:kis-si ly\"o-pi Trum-mun p\"a\"al-le, ko-ko majl-ma pau-haa.
W:
W:Yxi kaxi kolme nelj\"a,
W:anna iloinen olla,
W:koska suru tule,
W:anna h\"anen menn\"a.
W:
W:Barmat ne laulaa,
W:nelj\"a hijrt\"a hyppele,
W:kissi ly\"opi Trummun p\"a\"alle,
W:koko majlma pauhaa.
W:
W:
W:  From Musica Viva - http://www.musicaviva.com
W:  the Internet center for free sheet music downloads.
